X: 46
T: No_13_Buffalo_Dance_Song_(e).krn
N: Derived from No_13_Buffalo_Dance_Song_(e).krn
%%abc-version 2.0
%%abcx-abcm2ps-target-version 5.9.1 (29 Sep 2008)
%%abc-creator hum2abc beta
%%abcx-conversion-date 2019/03/15 08:38:45
%%humdrum-veritas 521014079
%%humdrum-veritas-data 589595460
%%linebreak <none>
%%barnumbers 0
L: 1/16
M: 2/4
K: Eb clef=bass
[K:clef=bass][M:2/4]B,4C2B,B, [I:setbarnb 2]| 
B,4G,2F,F, | 
F,4F,2D,D, ||  
[M:5/8]F,2G,G,F,2z4 ||  
[M:3/4]F,4E,2C,C,C,4 ||  
[M:2/4]F,4F,2E,E, [I:setbarnb 7]| 
F,2F,2 E,2 z2 ||  
[M:3/4]E,2F,E, C,2C,B,,B,,4 :|]  
[M:3/4]F,2E,2 F,2E,E,E,4 |]  



